X:150
T:London Assembly, The
M: C|
L:1/8
B:Thompson's Compleat Collection of 200 Favourite Country Dances, vol. 3 (London, 1773)
Z:Transcribed and edited by Flynn Titford-Mock, 2007
Z:abc's:AK/Fiddler's Companion
K:Bb
F2 | B2 (dB) caf | DFBd cA F2 | B2 dB c=egb | agf=e f2::F2 | AFec B2 AB | dBbg f=e f2 |
gbdf egce | dfBd cA F2 | G E2 G cBAG | A F2 A dcBA | Bfga bfed | ecBA B2 :|

